public/Clip path group (1).svg

<svg xmlns="http://www.w3.org/2000/svg" width="633" height="587" fill="none"><g filter="url(#a)" opacity=".7"><mask id="b" width="793" height="792" x="-1" y="0" maskUnits="userSpaceOnUse" style="mask-type:luminance"><path fill="#fff" d="M0 416.099 405.798 0l385.206 375.671-405.798 416.098z"/></mask><g mask="url(#b)"><path fill="#FFC805" d="M269.388 139.517c4.875-4.998 10.567-8.78 17.027-11.266 26.671-10.264 40.559-10.608 75.473 7.211 31.415 16.034 61.617 45.946 82.864 82.066 18.398 31.274 28.599 63.476 36.718 91.203q1.149 3.934 2.299 7.885c7.92 27.174 16.109 55.27 27.909 81.677 8.976 20.088 38.169 45.095 59.802 55.848 28.459 14.144 60.122 11.86 75.33-5.43 9.971-11.352 13.276-29.146 9.069-48.818-5.53-25.861-33.207-62.206-58.182-86.756a714 714 0 0 0-5.378-5.212c-13.277-12.789-29.804-28.704-37.524-49.343-6.87-18.359-3.925-35.578 6.136-45.898 4.968-5.094 11.671-8.506 19.789-9.546 24.554-3.145 56.856 16.1 72.006 42.9 6.658 11.783 3.805 23.42-6.378 25.988-10.184 2.57-23.841-4.902-30.5-16.684-2.798-4.948-10.266-9.398-14.8-8.819-4.533.583-7.22 6.332-5.326 11.396 2.588 6.92 11.449 15.454 20.831 24.488a846 846 0 0 1 5.92 5.74c31.321 30.787 67.865 78.065 76.496 118.427 6.573 30.732 1.209 58.755-14.716 76.885-12.075 13.768-29.959 21.86-51.694 23.424-21.733 1.567-45.192-3.554-67.834-14.807-16.715-8.309-35.555-21.603-51.693-36.478-13.259-12.22-31.117-31.384-40.905-53.287-13.401-29.991-22.122-59.914-30.557-88.853q-1.14-3.919-2.284-7.824c-7.483-25.568-16.031-52.637-30.844-77.821-14.533-24.704-34.187-44.654-53.919-54.724-20.282-10.353-21.801-10.473-40.638-3.224-11.941 4.6-16.943 18.94-19.034 30.162-5.775 31.011 1.06 70.637 19.243 111.579 14.21 31.998 34.948 65.184 63.394 101.457 8.976 11.443 18.651 23.095 28.006 34.361 21.643 26.065 44.024 53.017 62.331 82.527 21.141 34.078 41.081 84.936 33.644 125.475-4.624 25.214-19.447 42.355-42.869 49.567-26.5 8.158-58.862 1.316-91.124-19.268-38.999-24.88-73.417-67.299-87.682-108.061-6.964-19.899-9.508-38.456-11.963-56.402-.636-4.63-1.235-9.005-1.91-13.425-5.415-35.44-15.613-71.863-30.31-108.254-14.976-37.087-28.407-62.18-45.272-64.102-10.283-1.169-15.55 13.833-14.534 28.408.944 13.522 4.716 28.224 8.71 43.787 1.743 6.798 3.547 13.829 5.134 20.872 4.744 21.056 9.687 51.713-2.095 74.755-5.959 11.658-16.518 20.096-29.731 23.756-14.963 4.146-32.215 1.762-48.581-6.711-11.982-6.204-19.972-19.616-17.845-29.959 2.124-10.346 13.564-13.698 25.546-7.495 11.821 6.119 24.903.167 29.709-9.23 5.481-10.72 5.487-27.017.019-51.286-1.427-6.338-3.062-12.708-4.793-19.454-4.338-16.907-8.825-34.39-10.043-51.876-1.286-18.412 3.021-37.011 14.079-48.354 7.714-7.91 18.712-12.289 33.392-10.617 17.607 2.008 43.673 11.894 67.847 47.603 13.585 20.061 22.771 42.81 28.85 57.863 16.241 40.218 27.514 80.479 33.5 119.661.728 4.761 1.378 9.51 2.008 14.102 2.238 16.34 4.352 31.775 9.615 46.811 9.525 27.221 33.356 56.631 59.298 73.183 13.321 8.497 33.255 17.382 52.564 11.435 13.802-4.249 22.2-14.045 24.965-29.113 4.362-23.784-5.696-59.911-25.625-92.037-15.775-25.426-35.628-49.337-56.651-74.652-9.675-11.652-19.678-23.7-29.277-35.937-31.988-40.789-55.509-78.567-71.912-115.496-22.136-49.84-30.353-98.624-23.138-137.365 3.077-16.525 9.209-29.565 18.038-38.618"/></g></g><defs><filter id="a" width="610.659" height="587.181" x="91.054" y="121.166" color-interpolation-filters="sRGB" filterUnits="userSpaceOnUse"><feFlood flood-opacity="0" result="BackgroundImageFix"/><feBlend in="SourceGraphic" in2="BackgroundImageFix" result="shape"/><feTurbulence baseFrequency="2 2" numOctaves="3" result="noise" seed="4291" stitchTiles="stitch" type="fractalNoise"/><feColorMatrix in="noise" result="alphaNoise" type="luminanceToAlpha"/><feComponentTransfer in="alphaNoise" result="coloredNoise1"><feFuncA tableValues="1 1 1 1 1 1 1 1 1 1 1 1 1 1 1 1 1 1 1 1 1 1 1 1 1 1 1 1 1 1 1 1 1 1 1 1 1 1 1 1 1 1 1 1 1 1 1 1 1 1 1 0 0 0 0 0 0 0 0 0 0 0 0 0 0 0 0 0 0 0 0 0 0 0 0 0 0 0 0 0 0 0 0 0 0 0 0 0 0 0 0 0 0 0 0 0 0 0 0 0" type="discrete"/></feComponentTransfer><feComposite in="coloredNoise1" in2="shape" operator="in" result="noise1Clipped"/><feFlood flood-color="rgba(0, 0, 0, 0.25)" result="color1Flood"/><feComposite in="color1Flood" in2="noise1Clipped" operator="in" result="color1"/><feMerge result="effect1_noise_919_4862"><feMergeNode in="shape"/><feMergeNode in="color1"/></feMerge></filter></defs></svg>

<svg width="633" height="587" viewBox="0 0 633 587" fill="none" xmlns="http://www.w3.org/2000/svg">
<g opacity="0.7" filter="url(#filter0_n_919_4862)">
<mask id="mask0_919_4862" style="mask-type:luminance" maskUnits="userSpaceOnUse" x="-1" y="0" width="793" height="792">
<path d="M-0.000488281 416.099L405.798 0L791.004 375.671L385.206 791.769L-0.000488281 416.099Z" fill="white"/>
</mask>
<g mask="url(#mask0_919_4862)">
<path d="M269.388 139.517C274.263 134.519 279.955 130.737 286.415 128.251C313.086 117.987 326.974 117.643 361.888 135.462C393.303 151.496 423.505 181.408 444.752 217.528C463.15 248.802 473.351 281.004 481.47 308.731C482.236 311.354 483.002 313.982 483.769 316.616C491.689 343.79 499.878 371.886 511.678 398.293C520.654 418.381 549.847 443.388 571.48 454.141C599.939 468.285 631.602 466.001 646.81 448.711C656.781 437.359 660.086 419.565 655.879 399.893C650.349 374.032 622.672 337.687 597.697 313.137C595.933 311.404 594.132 309.669 592.319 307.925C579.042 295.136 562.515 279.221 554.795 258.582C547.925 240.223 550.87 223.004 560.931 212.684C565.899 207.59 572.602 204.178 580.72 203.138C605.274 199.993 637.576 219.238 652.726 246.038C659.384 257.821 656.531 269.458 646.348 272.026C636.164 274.596 622.507 267.124 615.848 255.342C613.05 250.394 605.582 245.944 601.048 246.523C596.515 247.106 593.828 252.855 595.722 257.919C598.31 264.839 607.171 273.373 616.553 282.407C618.549 284.329 620.532 286.241 622.473 288.147C653.794 318.934 690.338 366.212 698.969 406.574C705.542 437.306 700.178 465.329 684.253 483.459C672.178 497.227 654.294 505.319 632.559 506.883C610.826 508.45 587.367 503.329 564.725 492.076C548.01 483.767 529.17 470.473 513.032 455.598C499.773 443.378 481.915 424.214 472.127 402.311C458.726 372.32 450.005 342.397 441.57 313.458C440.809 310.846 440.049 308.237 439.286 305.634C431.803 280.066 423.255 252.997 408.442 227.813C393.909 203.109 374.255 183.159 354.523 173.089C334.241 162.736 332.722 162.616 313.885 169.865C301.944 174.465 296.942 188.805 294.851 200.027C289.076 231.038 295.911 270.664 314.094 311.606C328.304 343.604 349.042 376.79 377.488 413.063C386.464 424.506 396.139 436.158 405.494 447.424C427.137 473.489 449.518 500.441 467.825 529.951C488.966 564.029 508.906 614.887 501.469 655.426C496.845 680.64 482.022 697.781 458.6 704.993C432.1 713.151 399.738 706.309 367.476 685.725C328.477 660.845 294.059 618.426 279.794 577.664C272.83 557.765 270.286 539.208 267.831 521.262C267.195 516.632 266.596 512.257 265.921 507.837C260.506 472.397 250.308 435.974 235.611 399.583C220.635 362.496 207.204 337.403 190.339 335.481C180.056 334.312 174.789 349.314 175.805 363.889C176.749 377.411 180.521 392.113 184.515 407.676C186.258 414.474 188.062 421.505 189.649 428.548C194.393 449.604 199.336 480.261 187.554 503.303C181.595 514.961 171.036 523.399 157.823 527.059C142.86 531.205 125.608 528.821 109.242 520.348C97.2601 514.144 89.2705 500.732 91.3969 490.389C93.5213 480.043 104.961 476.691 116.943 482.894C128.764 489.013 141.846 483.061 146.652 473.664C152.133 462.944 152.139 446.647 146.671 422.378C145.244 416.04 143.609 409.67 141.878 402.924C137.54 386.017 133.053 368.534 131.835 351.048C130.549 332.636 134.856 314.037 145.914 302.694C153.628 294.784 164.626 290.405 179.306 292.077C196.913 294.085 222.979 303.971 247.153 339.68C260.738 359.741 269.924 382.49 276.003 397.543C292.244 437.761 303.517 478.022 309.503 517.204C310.231 521.965 310.881 526.714 311.511 531.306C313.749 547.646 315.863 563.081 321.126 578.117C330.651 605.338 354.482 634.748 380.424 651.3C393.745 659.797 413.679 668.682 432.988 662.735C446.79 658.486 455.188 648.69 457.953 633.622C462.315 609.838 452.257 573.711 432.328 541.585C416.553 516.159 396.7 492.248 375.677 466.933C366.002 455.281 355.999 443.233 346.4 430.996C314.412 390.207 290.891 352.429 274.488 315.5C252.352 265.66 244.135 216.876 251.35 178.135C254.427 161.61 260.559 148.57 269.388 139.517Z" fill="#FFC805"/>
</g>
</g>
<defs>
<filter id="filter0_n_919_4862" x="91.0542" y="121.166" width="610.659" height="587.181" filterUnits="userSpaceOnUse" color-interpolation-filters="sRGB">
<feFlood flood-opacity="0" result="BackgroundImageFix"/>
<feBlend mode="normal" in="SourceGraphic" in2="BackgroundImageFix" result="shape"/>
<feTurbulence type="fractalNoise" baseFrequency="2 2" stitchTiles="stitch" numOctaves="3" result="noise" seed="4291" />
<feColorMatrix in="noise" type="luminanceToAlpha" result="alphaNoise" />
<feComponentTransfer in="alphaNoise" result="coloredNoise1">
<feFuncA type="discrete" tableValues="1 1 1 1 1 1 1 1 1 1 1 1 1 1 1 1 1 1 1 1 1 1 1 1 1 1 1 1 1 1 1 1 1 1 1 1 1 1 1 1 1 1 1 1 1 1 1 1 1 1 1 0 0 0 0 0 0 0 0 0 0 0 0 0 0 0 0 0 0 0 0 0 0 0 0 0 0 0 0 0 0 0 0 0 0 0 0 0 0 0 0 0 0 0 0 0 0 0 0 0 "/>
</feComponentTransfer>
<feComposite operator="in" in2="shape" in="coloredNoise1" result="noise1Clipped" />
<feFlood flood-color="rgba(0, 0, 0, 0.25)" result="color1Flood" />
<feComposite operator="in" in2="noise1Clipped" in="color1Flood" result="color1" />
<feMerge result="effect1_noise_919_4862">
<feMergeNode in="shape" />
<feMergeNode in="color1" />
</feMerge>
</filter>
</defs>
</svg>
